X: 18511
T: I Don't Like Tuna
R: slip jig
M: 9/8
K: Dmajor
|:D (3DDD CAC GFD|(3EFA c dcA FDE|
D (3DDD CAC GFD|1 B,2 A, A,B,C D (3DDA,:|2 B,2 A, A,B,C DCA,||
|:B, (3B,B,B, DEF FED|DE A,2 AF EDC|
B, (3B,B,B, DEF FED|1 B,3 B,CD C (3DCA,:|2 CEE DFF ECA,||

